Papirus/32x32/places/folder-blue-snap.svg

<svg xmlns="http://www.w3.org/2000/svg" width="32" height="32" version="1">
 <rect style="opacity:.2" width="28" height="18" x="2" y="11" rx="1.4" ry="1.4"/>
 <path style="fill:#4877b1" d="m3.4 3c-0.775 0-1.4 0.625-1.4 1.4v18.2c0 0.775 0.625 1.4 1.4 1.4h25.2c0.775 0 1.4-0.625 1.4-1.4v-15.2c0-0.775-0.625-1.4-1.4-1.4h-13.6v-1.6c0-0.775-0.625-1.4-1.4-1.4z"/>
 <rect style="opacity:.2" width="28" height="18" x="2" y="9" rx="1.4" ry="1.4"/>
 <rect style="fill:#e4e4e4" width="24" height="11" x="4" y="8" rx="1.4" ry="1.4"/>
 <rect style="fill:#5294e2" width="28" height="18" x="2" y="10" rx="1.4" ry="1.4"/>
 <path style="fill:#ffffff;opacity:.1" d="m3.4 3c-0.775 0-1.4 0.625-1.4 1.4v1c0-0.775 0.625-1.4 1.4-1.4h10.2c0.775 0 1.4 0.625 1.4 1.4v-1c0-0.775-0.625-1.4-1.4-1.4zm11.6 3v1h13.6c0.775 0 1.4 0.625 1.4 1.4v-1c0-0.775-0.625-1.4-1.4-1.4z"/>
 <path style="fill:#1d344f" d="m11 14 5 6v-4.125zm6 2 4 2-1-2zm0 1v3l2-2zm-3 2-1.75 5 3.75-3z"/>
</svg>

<svg xmlns="http://www.w3.org/2000/svg" width="32" height="32" version="1">
 <rect style="opacity:0.2" width="28" height="18" x="2" y="11" rx="1.4" ry="1.4"/>
 <path style="fill:#4877b1" d="M 3.4,3 C 2.625,3 2,3.625 2,4.4 V 22.6 C 2,23.375 2.625,24 3.4,24 H 28.6 C 29.375,24 30,23.375 30,22.6 V 7.4 C 30,6.625 29.375,6 28.6,6 H 15 V 4.4 C 15,3.625 14.375,3 13.6,3 Z"/>
 <rect style="opacity:0.2" width="28" height="18" x="2" y="9" rx="1.4" ry="1.4"/>
 <rect style="fill:#e4e4e4" width="24" height="11" x="4" y="8" rx="1.4" ry="1.4"/>
 <rect style="fill:#5294e2" width="28" height="18" x="2" y="10" rx="1.4" ry="1.4"/>
 <path style="opacity:0.1;fill:#ffffff" d="M 3.4,3 C 2.625,3 2,3.625 2,4.4 V 5.4 C 2,4.625 2.625,4 3.4,4 H 13.6 C 14.375,4 15,4.625 15,5.4 V 4.4 C 15,3.625 14.375,3 13.6,3 Z M 15,6 V 7 H 28.6 C 29.375,7 30,7.625 30,8.4 V 7.4 C 30,6.625 29.375,6 28.6,6 Z"/>
 <path style="fill:#1d344f" d="m11 14 5 6v-4.125zm6 2 4 2-1-2zm0 1v3l2-2zm-3 2-1.75 5 3.75-3z"/>
</svg>
